proprietary/assets/icons/gebouwen/ontwerp.svg

<svg enable-background="new 0 0 64 64" height="64" viewBox="0 0 64 64" width="64" xmlns="http://www.w3.org/2000/svg"><path d="m0 0h64v64h-64z" fill="none"/><path d="m54.9 9.3c-3.1-3.1-7-4.3-8.7-2.7l-36.2 36.3-4.7 14.8c-.2.8.5 1.5 1.3 1.3l14.8-4.7 9.7-9.7v-5.7l-11.7 11.6c-.6.6-.5 1.2-.1 1.7l-7.2 2.3-2.4-2.4 2.3-7.1c.6.4 1.2.4 1.7-.1l36-36c.5.2 1.1.5 1.8 1l-16.1 16.1h5.7l13.3-13.3c.5.7.8 1.3 1 1.8l-11.5 11.5h5.7l8-8c1.6-1.6.4-5.5-2.7-8.7z"/><path d="m15.6 48.7c.8.8 1.6 1.2 2.4.4l13-13v-5.7l-15.8 15.9c-.8.7-.4 1.6.4 2.4z"/><path d="m54 29h-19c-.6 0-1 .4-1 1v29h9v-5h3v5h9v-29c0-.6-.4-1-1-1zm-13 22h-3v-3h3zm0-5h-3v-3h3zm0-5h-3v-3h3zm0-5h-3v-3h3zm5 15h-3v-3h3zm0-5h-3v-3h3zm0-5h-3v-3h3zm0-5h-3v-3h3zm5 15h-3v-3h3zm0-5h-3v-3h3zm0-5h-3v-3h3zm0-5h-3v-3h3z"/></svg>

<?xml version="1.0" encoding="utf-8"?>
<!-- Generator: Adobe Illustrator 22.1.0, SVG Export Plug-In . SVG Version: 6.00 Build 0)  -->
<!DOCTYPE svg PUBLIC "-//W3C//DTD SVG 1.1//EN" "http://www.w3.org/Graphics/SVG/1.1/DTD/svg11.dtd">
<svg version="1.1" xmlns="http://www.w3.org/2000/svg" xmlns:xlink="http://www.w3.org/1999/xlink" x="0px" y="0px" width="64px"
	 height="64px" viewBox="0 0 64 64" style="enable-background:new 0 0 64 64;" xml:space="preserve">
<style type="text/css">
	.st0{fill:none;}
</style>
<g id="Box">
	<rect class="st0" width="64" height="64"/>
</g>
<g id="Icon">
	<g>
		<path d="M54.9,9.3c-3.1-3.1-7-4.3-8.7-2.7L10,42.9L5.3,57.7c-0.2,0.8,0.5,1.5,1.3,1.3l14.8-4.7l9.7-9.7v-5.7L19.4,50.5
			c-0.6,0.6-0.5,1.2-0.1,1.7l-7.2,2.3l-2.4-2.4L12,45c0.6,0.4,1.2,0.4,1.7-0.1l36-36c0.5,0.2,1.1,0.5,1.8,1L35.4,26h5.7l13.3-13.3
			c0.5,0.7,0.8,1.3,1,1.8L43.9,26h5.7l8-8C59.2,16.4,58,12.5,54.9,9.3z"/>
		<path d="M15.6,48.7c0.8,0.8,1.6,1.2,2.4,0.4l13-13v-5.7L15.2,46.3C14.4,47,14.8,47.9,15.6,48.7z"/>
		<path d="M54,29H35c-0.6,0-1,0.4-1,1v29h9v-5h3v5h9V30C55,29.4,54.6,29,54,29z M41,51h-3v-3h3V51z M41,46h-3v-3h3V46z M41,41h-3v-3
			h3V41z M41,36h-3v-3h3V36z M46,51h-3v-3h3V51z M46,46h-3v-3h3V46z M46,41h-3v-3h3V41z M46,36h-3v-3h3V36z M51,51h-3v-3h3V51z
			 M51,46h-3v-3h3V46z M51,41h-3v-3h3V41z M51,36h-3v-3h3V36z"/>
	</g>
</g>
</svg>
